!!!COM: 平井堅
!!!OTL: 君の好きなとこ
**kern	**kern	**kern	**kern	**kern
*part5	*part4	*part3	*part2	*part1
*staff5	*staff4	*staff3	*staff2	*staff1
*I"ピアノ	*I"ピアノ	*I"ピアノ	*I"ピアノ	*I"钢琴
*I'Pno.	*I'Pno.	*I'Pno.	*I'Pno.	*I'Pno.
*clefF4	*clefGv2	*clefG2	*clefGv2	*clefG2
*k[b-]	*k[b-]	*k[b-]	*k[b-]	*k[b-]
*M4/4	*M4/4	*M4/4	*M4/4	*M4/4
=1	=1	=1	=1	=1
1BB-	1d	1f	4r	1r
.	.	.	4f	.
.	.	.	4e	.
.	.	.	8fL	.
.	.	.	[8cJ	.
=2	=2	=2	=2	=2
1AA	1c	1f	8c]	1r
.	.	.	8r	.
.	.	.	4f	.
.	.	.	4e	.
.	.	.	4f	.
=3	=3	=3	=3	=3
2D	1d	1f	4.a	1r
.	.	.	4f	.
8r	.	.	.	.
8CL	.	.	8cL	.
8D	.	.	8d	.
8EJ	.	.	8eJ	.
=4	=4	=4	=4	=4
4F	1c	1f	4f	1r
8E	.	.	8e	.
4C	.	.	4c	.
4AA	.	.	4A	.
8r	.	.	8r	.
=5	=5	=5	=5	=5
1GG	1B-	1d	1F	1r
=6	=6	=6	=6	=6
[2C	8r	8r	8r	8r
.	2e	8r	8r	8r
.	.	8r	4g	4r
.	.	4cc	.	.
8C]	.	.	8r	8r
8r	8r	8r	8CL	8CL
4r	4r	4r	8F	8F
.	.	.	8GJ	8GJ
=7	=7	=7	=7	=7
4.F	1r	1r	8AL	8AL
.	.	.	8B-	8B-
.	.	.	8A	8A
8F	.	.	8B-J	8B-J
2E	.	.	8G	8G
.	.	.	4A	4A
.	.	.	[8F	[8F
=8	=8	=8	=8	=8
4.D	1r	1r	4F]	4F]
.	.	.	8r	8r
8D	.	.	8F	8F
2C	.	.	8GL	8GL
.	.	.	8F	8F
.	.	.	8E	8E
.	.	.	8FJ	8FJ
=9	=9	=9	=9	=9
4.BB-	1r	1r	8dL	8dL
.	.	.	8d	8d
.	.	.	8d	8d
8BB-	.	.	8dJ	8dJ
2C	.	.	8EL	8EL
.	.	.	8F	8F
.	.	.	8G	8G
.	.	.	[8cJ	[8cJ
=10	=10	=10	=10	=10
4.AA	1r	1r	2c]	2c]
8AA	.	.	.	.
2D	.	.	8F#XL	8F#XL
.	.	.	8G	8G
.	.	.	8A	8A
.	.	.	8cJ	8cJ
=11	=11	=11	=11	=11
4.GG	1r	1r	8B-L	8B-L
.	.	.	8B-	8B-
.	.	.	8B-	8B-
8GG	.	.	8AJ	8AJ
2GG	.	.	8B-L	8B-L
.	.	.	8A	8A
.	.	.	8G	8G
.	.	.	[8AJ	[8AJ
=12	=12	=12	=12	=12
4.FF	1r	1r	4A]	4A]
.	.	.	8r	8r
8FF	.	.	8F	8F
2FF	.	.	8GL	8GL
.	.	.	8F	8F
.	.	.	8E	8E
.	.	.	8FJ	8FJ
=13	=13	=13	=13	=13
4.GG	1r	1r	8B-L	8B-L
.	.	.	8B-	8B-
.	.	.	8A	8A
8GG	.	.	8AJ	8AJ
2BB-	.	.	8GL	8GL
.	.	.	8F	8F
.	.	.	8A	8A
.	.	.	[8GJ	[8GJ
=14	=14	=14	=14	=14
4.C	1r	1r	2G]	2G]
8C	.	.	.	.
8C	.	.	8r	8r
4E	.	.	8CL	8CL
.	.	.	8F	8F
8C	.	.	8GJ	8GJ
=15	=15	=15	=15	=15
4.F	2c	2f	8AL	8AL
.	.	.	8B-	8B-
.	.	.	8A	8A
8F	.	.	8B-J	8B-J
2E	2c	2e	8G	8G
.	.	.	4A	4A
.	.	.	[8F	[8F
=16	=16	=16	=16	=16
4.D	4.d	4.a	4F]	4F]
.	.	.	8r	8r
8D	4d	4a	8F	8F
2C	.	.	8GL	8GL
.	4d	4a	8F	8F
.	.	.	8E	8E
.	8r	8r	8FJ	8FJ
=17	=17	=17	=17	=17
4.BB-	4.d	4.f	8dL	8dL
.	.	.	8d	8d
.	.	.	8d	8d
8BB-	8d	8f	8fJ	8fJ
2C	4e	4g	8eL	8eL
.	.	.	8d	8d
.	4r	4r	8c	8c
.	.	.	[8cJ	[8cJ
=18	=18	=18	=18	=18
4.AA	8r	8r	2c]	2c]
.	8e	8a	.	.
.	8r	8r	.	.
8AA	8e	8a	.	.
2D	8r	8r	8F#XL	8F#XL
.	8f#X	8cc	8G	8G
.	8r	8r	8A	8A
.	8f#	8cc	8cJ	8cJ
=19	=19	=19	=19	=19
4.GG	4.d	4.b-	8B-L	8B-L
.	.	.	8B-	8B-
.	.	.	8B-	8B-
8GG	2d	2b-	8AJ	8AJ
2GG	.	.	8B-L	8B-L
.	.	.	8A	8A
.	.	.	8G	8G
.	[8f	[8cc	[8AJ	[8AJ
=20	=20	=20	=20	=20
4.FF	4f]	4cc]	4A]	4A]
.	8r	8r	8r	8r
8FF	8A	8d	8F	8F
2GG	8cL	8eL	8GL	8GL
.	8A	8d	8F	8F
.	8G	8c	8E	8E
.	8AJ	8dJ	8FJ	8FJ
=21	=21	=21	=21	=21
4.FF	8FL	8dL	8B-L	8B-L
.	8F	8d	8B-	8B-
.	8F	8d	8A	8A
8FF	8FJ	8dJ	8AJ	8AJ
2GG	8EL	8cL	8GL	8GL
.	8A	8d	8F	8F
.	8F	8d	8A	8A
.	[8EJ	[8cJ	[8GJ	[8GJ
=22	=22	=22	=22	=22
4.C	2E]	2c]	2G]	2G]
8C	.	.	.	.
8C	2r	2r	4r	4r
4E	.	.	.	.
.	.	.	8r	8r
8C	.	.	8E	8E
=23	=23	=23	=23	=23
4BB-	8r	8r	4F	4F
.	8d	8f	.	.
8FL	8r	8r	8r	8r
8BB-J	8d	8f	8E	8E
4BB-	8r	8r	4F	4F
.	8d	8f	.	.
8FL	8r	8r	8r	8r
8BB-J	8d	8f	8E	8E
=24	=24	=24	=24	=24
4AA	8r	8r	4F	4F
.	8c	8f	.	.
8AAL	8r	8r	8r	8r
8AAJ	8c	8f	8E	8E
8FFL	8r	8r	4F	4F
8FF	8c	8f	.	.
8GG	8r	8r	8r	8r
8GGJ	8c	8f	8C	8C
=25	=25	=25	=25	=25
4.FF	1d	1f	4F	4F
.	.	.	8r	8r
8FF	.	.	8E	8E
2GG	.	.	4F	4F
.	.	.	8r	8r
.	.	.	8E	8E
=26	=26	=26	=26	=26
8FFL	4A	4d	4F	4F
8C	.	.	.	.
8AA	8r	8r	8r	8r
8GGJ	8c	8e	8G	8G
4AA	4d	4f	4A	4A
4AA	8r	8r	8r	8r
.	8G	8r	8E	8E
=27	=27	=27	=27	=27
4BB-	4A	8r	4F	4F
.	.	8e	.	.
8FL	8r	4f	8r	8r
8BB-J	8G	.	8E	8E
4BB-	4A	8r	4F	4F
.	.	8e	.	.
8FL	8r	4f	8r	8r
8BB-J	8r	.	8E	8E
=28	=28	=28	=28	=28
4AA	2c	2f	4F	4F
8AAL	.	.	8r	8r
8AAJ	.	.	8E	8E
8FFL	8r	8r	4F	4F
8FF	8r	8r	.	.
8GG	8r	8r	8r	8r
8GGJ	8E	8G	8C	8C
=29	=29	=29	=29	=29
4.FF	4D	4A	4F	4F
.	8r	8r	8r	8r
8GG	8E	8c	8G	8G
4AA	4F	4d	4A	4A
8r	8r	8r	8r	8r
8BB-	8F	8d	8B-	8B-
=30	=30	=30	=30	=30
4AA	4F	4d	4A	4A
4C#X	4G	4e	4c#X	4c#X
4D	4A	4f	4d	4d
4E	4c	4g	4e	4e
=31	=31	=31	=31	=31
4.BB-	8dL	8aL	8fL	8fL
.	8B-	8f	8d	8d
.	8c	8g	8e	8e
4BB-	[8dJ	[8aJ	[8fJ	[8fJ
.	8dL]	8aL]	8fL]	8fL]
4BB-	8B-	8f	8d	8d
.	8c	8g	8e	8e
8C	[8dJ	[8aJ	[8fJ	[8fJ
=32	=32	=32	=32	=32
4.BB-	8dL]	8aL]	8fL]	8fL]
.	8B-	8f	8d	8d
.	8c	8g	8e	8e
4BB-	[8dJ	[8aJ	[8fJ	[8fJ
.	8dL]	8aL]	8fL]	8fL]
8BB-L	8B-	8f	8d	8d
8C	8c	8g	8e	8e
8BB-J	8dJ	8aJ	8fJ	8fJ
=33	=33	=33	=33	=33
4AA	8cL	8gL	8eL	8eL
.	8c	8g	8e	8e
8r	8c	8g	8e	8e
8AA	8dJ	8aJ	8fJ	8fJ
8r	8cL	8gL	8eL	8eL
8AA	8B-	8f	8d	8d
4AA	8A	8e	8c	8c
.	[8AJ	[8eJ	[8cJ	[8cJ
=34	=34	=34	=34	=34
4D	8A]	8e]	4c]	4c]
.	8r	8r	.	.
8r	4G	4c	4r	4r
8D	.	.	.	.
8r	4d	4f#X	2r	2r
8D	.	.	.	.
4D	4A	4d	.	.
=35	=35	=35	=35	=35
*^	*	*	*	*
4.r	4.GG	4.d	4.b-	8B-L	8B-L
.	.	.	.	8G	8G
.	.	.	.	8A	8A
8GG	8r	4d	4b-	[8B-J	[8B-J
2GG	2r	.	.	8B-L]	8B-L]
.	.	4.B-	4.g	8G	8G
.	.	.	.	8A	8A
.	.	.	.	[8B-J	[8B-J
*v	*v	*	*	*	*
=36	=36	=36	=36	=36
4.BB-	4.B-	4.g	8B-L]	8B-L]
.	.	.	8G	8G
.	.	.	8A	8A
8BB-	4G	4f	[8B-J	[8B-J
2BB-	.	.	8B-L]	8B-L]
.	4.e	4.cc	8G	8G
.	.	.	8A	8A
.	.	.	8B-J	8B-J
=37	=37	=37	=37	=37
4.F	1c	1a	8AL	8AL
.	.	.	8A	8A
.	.	.	8A	8A
8F	.	.	8B-J	8B-J
4.F	.	.	8AL	8AL
.	.	.	8G	8G
.	.	.	8F	8F
8F	.	.	[8fJ	[8fJ
=38	=38	=38	=38	=38
4F	1d#X	1a	1f]	1f]
8A	.	.	.	.
4A	.	.	.	.
8GL	.	.	.	.
8F	.	.	.	.
8EJ	.	.	.	.
=39	=39	=39	=39	=39
4.BB-	8dL	8aL	8fL	8fL
.	8B-	8f	8d	8d
.	8c	8g	8e	8e
8BB-	[8dJ	[8aJ	[8fJ	[8fJ
2BB-	8dL]	8aL]	8fL]	8fL]
.	8B-	8f	8d	8d
.	8c	8g	8e	8e
.	[8dJ	[8aJ	[8fJ	[8fJ
=40	=40	=40	=40	=40
4.BB-	8dL]	8aL]	8fL]	8fL]
.	8B-	8f	8d	8d
.	8c	8g	8e	8e
8BB-	[8dJ	[8aJ	[8fJ	[8fJ
2BB-	8dL]	8aL]	8fL]	8fL]
.	8B-	8f	8d	8d
.	8c	8g	8e	8e
.	8dJ	8aJ	8fJ	8fJ
=41	=41	=41	=41	=41
8AAL	8cL	8gL	8eL	8eL
8AA	8c	8g	8e	8e
8AA	8c	8g	8e	8e
8AAJ	8cJ	8gJ	8eJ	8eJ
8r	8eL	8gL	8cL	8cL
8AAL	8d	8b-	8g	8g
8C	8c	8g	8e	8e
8DJ	[8dJ	[8aJ	[8fJ	[8fJ
=42	=42	=42	=42	=42
8DL	1d]	1a]	1f]	1f]
8DJ	.	.	.	.
4D	.	.	.	.
8r	.	.	.	.
8FFL	.	.	.	.
8GG	.	.	.	.
8AAJ	.	.	.	.
=43	=43	=43	=43	=43
4GG	1B-	1f	8B-L	8B-L
.	.	.	8G	8G
4GG	.	.	8A	8A
.	.	.	[8B-J	[8B-J
8GGL	.	.	8B-L]	8B-L]
8AAJ	.	.	8G	8G
4BB-	.	.	8A	8A
.	.	.	[8B-J	[8B-J
=44	=44	=44	=44	=44
8C	[1d	8r	8B-L]	8B-L]
8r	.	8eL	8c	8c
2C	.	8f	8d	8d
.	.	8aJ	8fJ	8fJ
.	.	8a	8f	8f
.	.	4g	4e	4e
4r	.	.	.	.
.	.	[8a	[8f	[8f
=45	=45	=45	=45	=45
1BB-	1d]	1a]	1f]	1f]
=46	=46	=46	=46	=46
4.FF	4.f	4.a	1r	1r
4GG	4.g	4.b-	.	.
8GGL	.	.	.	.
8AA	4a	4cc	.	.
8BB-J	.	.	.	.
=47	=47	=47	=47	=47
4AA	[2F	[2c	[2a	1r
8AA	.	.	.	.
4GG	.	.	.	.
.	8FL]	8cL]	8aL]	.
8D	8G	8B-	8d	.
4C	8A	8c	8f	.
.	8cJ	8fJ	8aJ	.
=48	=48	=48	=48	=48
4FF	4.c	4.f	4.a	1r
8FF	.	.	.	.
4GG	4B-	4d	4g	.
8GG	8AL	8cL	8fL	.
4AA	8G	8B-	8e	.
.	8AJ	8cJ	8fJ	.
=49	=49	=49	=49	=49
8GG	4.B-	4.d	4.g	1r
4D	.	.	.	.
8C	4e	4g	4cc	.
4GG	.	.	.	.
.	4B-	4d	4g	.
8BB-L	.	.	.	.
8CJ	8c	8e	8a	.
=50	=50	=50	=50	=50
4.GG	4.B-	4.d	4.g	1r
8AA	4.A	4.c	4.f#X	.
2AA	.	.	.	.
.	4r	4r	4r	.
=51	=51	=51	=51	=51
4GG	4d	4a	4f	1r
8GGL	8cL	8gL	8eL	.
8GGJ	8B-J	8fJ	8dJ	.
8D	8B-	8f	8d	.
4.E	4.c	4.g	4e	.
.	.	.	8r	.
=52	=52	=52	=52	=52
4C	4d	4a	4f	1r
8CL	8cL	8gL	8eL	.
8CJ	8B-J	8fJ	8dJ	.
8D	8B-L	8f	8d	.
4.E	8cJ	4.g	4e	.
.	4r	.	.	.
.	.	.	8r	.
=53	=53	=53	=53	=53
8FFL	4e	4cc	4g	1r
8AA	.	.	.	.
8CJ	8dL	8b-L	8gL	.
4FF	[8cJ	[8aJ	[8fJ	.
.	2c]	2a]	2f]	.
8BB-	.	.	.	.
4AA	.	.	.	.
=54	=54	=54	=54	=54
8AAL	4.f	4.a	4.dd	1r
8FF	.	.	.	.
8AAJ	.	.	.	.
4C	4.e	4.g	4.cc	.
8FF	.	.	.	.
4FF	4r	4r	4r	.
=55	=55	=55	=55	=55
4AA	[2c	[2e	[2a	2r
8AA	.	.	.	.
4AA	.	.	.	.
.	8cL]	8eL]	8aL]	8r
8AA	8F	8A	8d	8r
4GG	8A	8c	8f	4r
.	8cJ	8eJ	8aJ	.
=56	=56	=56	=56	=56
4FF	4.c	4.e	4.a	1r
8FF	.	.	.	.
4GG	4B-	4d	4g	.
8GG	8AL	8cL	8fL	.
4AA	8G	8B-	8e	.
.	8AJ	8cJ	8fJ	.
=57	=57	=57	=57	=57
8GG	4.B-	4.d	4.g	1r
4D	.	.	.	.
8C	4e	4g	4cc	.
4GG	.	.	.	.
.	4B-	4d	4g	.
8BB-L	.	.	.	.
8CJ	8c	8e	8a	.
=58	=58	=58	=58	=58
4.GG	4.B-	4.d	4.g	1r
8AA	4.A	4.c	4.f#X	.
2AA	.	.	.	.
.	4r	4r	4r	.
=59	=59	=59	=59	=59
4.FF	2c	2a	2f	1r
8FF	.	.	.	.
2BB-	2d	2f	2b-	.
=60	=60	=60	=60	=60
4.AA	4f	4cc	4a	1r
.	8d	8f	8b-	.
8AA	4e	4g	4cc	.
2AA	.	.	.	.
.	4.c	4.a	4.f	.
=61	=61	=61	=61	=61
4.GG	2c	2a	2f	1r
8GG	.	.	.	.
8GGL	8r	8r	8r	.
8AA	8AL	8fL	8dL	.
8AA	8d	8a	8f	.
8GGJ	8eJ	8ccJ	8gJ	.
=62	=62	=62	=62	=62
4.AA	2f	2dd	2a	1r
8AA	.	.	.	.
2GG	2e	2cc	2g	.
=63	=63	=63	=63	=63
1BB-	1d	1f	8fL	8fL
.	.	.	8d	8d
.	.	.	8e	8e
.	.	.	[8fJ	[8fJ
.	.	.	8fL]	8fL]
.	.	.	8d	8d
.	.	.	8e	8e
.	.	.	[8fJ	[8fJ
=64	=64	=64	=64	=64
1BB-	1B-	1d	8fL]	8fL]
.	.	.	8d	8d
.	.	.	8e	8e
.	.	.	[8fJ	[8fJ
.	.	.	8fL]	8fL]
.	.	.	8d	8d
.	.	.	8e	8e
.	.	.	8fJ	8fJ
=65	=65	=65	=65	=65
1AA	1c	1g	8eL	8eL
.	.	.	8e	8e
.	.	.	8e	8e
.	.	.	8fJ	8fJ
.	.	.	8eL	8eL
.	.	.	8d	8d
.	.	.	8c	8c
.	.	.	[8cJ	[8cJ
=66	=66	=66	=66	=66
1D	1A	1f	4c]	4c]
.	.	.	4r	4r
.	.	.	2r	2r
=67	=67	=67	=67	=67
1GG	8r	8r	8B-L	8B-L
.	8B-	8r	8G	8G
.	2.d	8r	8A	8A
.	.	[2f	8B-J	8B-J
.	.	.	8B-L	8B-L
.	.	.	8G	8G
.	.	.	8A	8A
.	.	8f]	[8B-J	[8B-J
=68	=68	=68	=68	=68
2BB-	8r	8r	8B-L]	8B-L]
.	8d	8r	8G	8G
.	4f	8r	8A	8A
.	.	8b-	8B-J	8B-J
2C	8r	8r	8B-L	8B-L
.	4.e	8r	8G	8G
.	.	8gL	8A	8A
.	.	8ccJ	8B-J	8B-J
=69	=69	=69	=69	=69
1F	2c	2f	8AL	8AL
.	.	.	8A	8A
.	.	.	8A	8A
.	.	.	8B-J	8B-J
.	8r	8r	8AL	8AL
.	4.A	4.c	8G	8G
.	.	.	8F	8F
.	.	.	[8fJ	[8fJ
=70	=70	=70	=70	=70
4.F	1c	1d#X	1f]	1f]
4F	.	.	.	.
8AL	.	.	.	.
8G	.	.	.	.
8FJ	.	.	.	.
=71	=71	=71	=71	=71
4.BB-	4.B-	4.d	8fL	8fL
.	.	.	8d	8d
.	.	.	8e	8e
8BB-	2B-	2d	8fJ	8fJ
2BB-	.	.	8fL	8fL
.	.	.	8d	8d
.	.	.	8e	8e
.	8r	8r	8fJ	8fJ
=72	=72	=72	=72	=72
4.BB-	4.c	4.e	8fL	8fL
.	.	.	8d	8d
.	.	.	8e	8e
8BB-	2c	2e	8fJ	8fJ
2BB-	.	.	8fL	8fL
.	.	.	8d	8d
.	.	.	8e	8e
.	8r	8r	8fJ	8fJ
=73	=73	=73	=73	=73
4AA	4.c	4.e	8eL	8eL
.	.	.	8e	8e
4AA	.	.	8e	8e
.	2c	2e	8dJ	8dJ
8r	.	.	8cL	8cL
8AAL	.	.	8g	8g
8C	.	.	8e	8e
8DJ	8r	8r	8fJ	8fJ
=74	=74	=74	=74	=74
8DL	4.A	4.c	1f	1f
8DJ	.	.	.	.
4D	.	.	.	.
.	2A	2c	.	.
8r	.	.	.	.
8D	.	.	.	.
4D	.	.	.	.
.	8r	8r	.	.
=75	=75	=75	=75	=75
8GG	1d	1f	8B-L	8B-L
8r	.	.	8G	8G
4r	.	.	8A	8A
.	.	.	8B-J	8B-J
8r	.	.	8B-L	8B-L
8r	.	.	8G	8G
8r	.	.	8A	8A
[8GG	.	.	8B-J	8B-J
=76	=76	=76	=76	=76
4GG]	1e	[1cc	8B-L	8B-L
.	.	.	8c	8c
8GG	.	.	8d	8d
2GG	.	.	8fJ	8fJ
.	.	.	8f	8f
.	.	.	4e	4e
8r	.	.	[8f	[8f
=77	=77	=77	=77	=77
4r	2a	2cc]	2f]	2f]
4F	.	.	.	.
4A	8f	8cc	8r	8r
.	8r	8r	8gL	8gL
8GL	8r	8r	8f	8f
8FJ	8r	8r	[8aJ	[8aJ
=78	=78	=78	=78	=78
8G	8g	8b-	8aL]	8aL]
4G	4g	4b-	8b-	8b-
.	.	.	8ccJ	8ccJ
4.B-	4.b-	4.dd	4g	4g
.	.	.	4f	4f
4A	4a	4cc	.	.
.	.	.	8r	8r
=79	=79	=79	=79	=79
4.BB-	8dL	8aL	8fL	8fL
.	8B-	8f	8d	8d
.	8c	8g	8e	8e
4BB-	[8dJ	[8aJ	8fJ	8fJ
.	8dL]	8aL]	8fL	8fL
4BB-	8B-	8f	8d	8d
.	8c	8g	8e	8e
8C	8dJ	8aJ	8fJ	8fJ
=80	=80	=80	=80	=80
4.BB-	8dL	8aL	8fL	8fL
.	8B-	8f	8d	8d
.	8c	8g	8e	8e
4BB-	[8dJ	[8aJ	8fJ	8fJ
.	8dL]	8aL]	8fL	8fL
8BB-L	8B-	8f	8d	8d
8C	8c	8g	8e	8e
8BB-J	8dJ	8aJ	8fJ	8fJ
=81	=81	=81	=81	=81
4AA	8cL	8gL	8eL	8eL
.	8c	8g	8e	8e
8r	8c	8g	8e	8e
8AA	8dJ	8aJ	8fJ	8fJ
8r	8cL	8gL	8eL	8eL
8AA	8B-	8f	8d	8d
4AA	8A	8e	8c	8c
.	8AJ	8eJ	8cJ	8cJ
=82	=82	=82	=82	=82
4D	4.A	4.e	4c	4c
8r	.	.	4r	4r
8D	4f	4a	.	.
8r	.	.	2r	2r
8D	4f	4a	.	.
4D	.	.	.	.
.	8r	8r	.	.
=83	=83	=83	=83	=83
4.GG	4.d	4.b-	8B-L	8B-L
.	.	.	8G	8G
.	.	.	8A	8A
8GG	4d	4b-	8B-J	8B-J
2GG	.	.	8B-L	8B-L
.	4.B-	4.g	8G	8G
.	.	.	8A	8A
.	.	.	8B-J	8B-J
=84	=84	=84	=84	=84
4.BB-	4.B-	4.g	8B-L	8B-L
.	.	.	8G	8G
.	.	.	8A	8A
8BB-	4G	4f	8B-J	8B-J
2BB-	.	.	8B-L	8B-L
.	4.e	4.cc	8G	8G
.	.	.	8A	8A
.	.	.	8B-J	8B-J
=85	=85	=85	=85	=85
4.F	1c	1a	8AL	8AL
.	.	.	8A	8A
.	.	.	8A	8A
8F	.	.	8B-J	8B-J
4.F	.	.	8AL	8AL
.	.	.	8G	8G
.	.	.	8F	8F
8F	.	.	8fJ	8fJ
=86	=86	=86	=86	=86
4F	1d#X	1a	1f	1f
8A	.	.	.	.
4A	.	.	.	.
8GL	.	.	.	.
8F	.	.	.	.
8EJ	.	.	.	.
=87	=87	=87	=87	=87
4.BB-	8dL	8aL	8fL	8fL
.	8B-	8f	8d	8d
.	8c	8g	8e	8e
8BB-	[8dJ	[8aJ	[8fJ	[8fJ
2BB-	8dL]	8aL]	8fL]	8fL]
.	8B-	8f	8d	8d
.	8c	8g	8e	8e
.	8dJ	[8aJ	[8fJ	[8fJ
=88	=88	=88	=88	=88
4.BB-	8dL	8aL]	8fL]	8fL]
.	8B-	8f	8d	8d
.	8c	8g	8e	8e
8BB-	[8dJ	[8aJ	[8fJ	[8fJ
2BB-	8dL]	8aL]	8fL]	8fL]
.	8B-	8f	8d	8d
.	8c	8g	8e	8e
.	8dJ	8aJ	8fJ	8fJ
=89	=89	=89	=89	=89
8AAL	4.c	4.g	8eL	8eL
8AA	.	.	8e	8e
8AA	.	.	8e	8e
8FFJ	8e	8g	8dJ	8dJ
8r	8r	8r	8cL	8cL
8GGL	8r	8r	8g	8g
8D	8r	8r	8a	8a
8DJ	[8d	[8a	8fJ	8fJ
=90	=90	=90	=90	=90
8DL	1d]	1a]	1f	1f
8DJ	.	.	.	.
4D	.	.	.	.
8r	.	.	.	.
8FFL	.	.	.	.
8GG	.	.	.	.
8AAJ	.	.	.	.
=91	=91	=91	=91	=91
4GG	1B-	1d	8B-L	8B-L
.	.	.	8G	8G
4GG	.	.	8A	8A
.	.	.	8B-J	8B-J
8GGL	.	.	8B-L	8B-L
8AAJ	.	.	8G	8G
4BB-	.	.	8A	8A
.	.	.	8B-J	8B-J
=92	=92	=92	=92	=92
8C	1d	1f	8B-L	8B-L
8r	.	.	8c	8c
2C	.	.	8d	8d
.	.	.	8fJ	8fJ
.	.	.	8f	8f
.	.	.	4e	4e
4r	.	.	.	.
.	.	.	[8f	[8f
=93	=93	=93	=93	=93
8FFL	1d	1a	1f_	1f_
8FFJ	.	.	.	.
8r	.	.	.	.
4.AA	.	.	.	.
8CL	.	.	.	.
8DJ	.	.	.	.
=94	=94	=94	=94	=94
8BB-L	4d#X	4b-	2f]	2f]
8BB-J	.	.	.	.
8r	8g	8cc	.	.
4D	4f	4a	.	.
.	.	.	2r	2r
8D	8r	8r	.	.
4D	4r	4r	.	.
=95	=95	=95	=95	=95
8BB-L	8B-L	8B-L	8B-L	8B-L
8GG	8G	8G	8G	8G
8AA	8A	8A	8A	8A
8BB-J	8B-J	8B-J	8B-J	8B-J
8BB-L	8B-L	8B-L	8B-L	8B-L
8GG	8G	8G	8G	8G
8AA	8A	8A	8A	8A
8BB-J	8B-J	8B-J	8B-J	8B-J
=96	=96	=96	=96	=96
8BB-L	8B-L	8B-L	8B-L	8B-L
8C	8c	8c	8c	8c
8D	8d	8d	8d	8d
8FJ	8fJ	8fJ	8fJ	8fJ
8F	8f	8f	8f	8f
4E	4e	4e	4e	4e
[8F	8f	8f	8f	8f
=97	=97	=97	=97	=97
8FL_	1f	1f	1f	1f
8F]	.	.	.	.
8A	.	.	.	.
8GJ	.	.	.	.
4F	.	.	.	.
4r	.	.	.	.
=98	=98	=98	=98	=98
2E-X	2e-X	2g	1r	1r
2D	2d	2f#X	.	.
=99	=99	=99	=99	=99
1r	1r	1r	8B-L	1r
.	.	.	8G	.
.	.	.	8A	.
.	.	.	8B-J	.
.	.	.	8B-L	.
.	.	.	8G	.
.	.	.	8A	.
.	.	.	8B-J	.
=100	=100	=100	=100	=100
1r	1r	1r	8B-L	1r
.	.	.	8c	.
.	.	.	8d	.
.	.	.	8fJ	.
.	.	.	8f	.
.	.	.	4e	.
.	.	.	8f	.
=101	=101	=101	=101	=101
1r	1r	1r	1f	1r
=102	=102	=102	=102	=102
1r	1r	1r	1r	1r
=103	=103	=103	=103	=103
1r	1r	1r	1r	1r
=104	=104	=104	=104	=104
1r	1r	1r	1r	1r
=105	=105	=105	=105	=105
1r	1r	1r	1r	1r
=106	=106	=106	=106	=106
1r	1r	1r	1r	1r
=107	=107	=107	=107	=107
1r	1r	1r	1r	1r
=108	=108	=108	=108	=108
1r	1r	1r	4r	1r
.	.	.	4r	.
.	.	.	2r	.
==	==	==	==	==
*-	*-	*-	*-	*-
!!!YEM: くげ
